src/pos-icons/selection-drag.svg

<svg height="24" viewBox="0 0 24 24" width="24" xmlns="http://www.w3.org/2000/svg"><path d="m14 17h3v-3h2v3h3v2h-3v3h-2v-3h-3zm-2 0v2h-3v-2zm-5 0v2h-4v-4h2v2zm-4-4v-3h2v3zm0-5v-4h4v2h-2v2zm6-4h3v2h-3zm6 0h4v4h-2v-2h-2zm4 6v2h-2v-2z"/></svg>

<?xml version="1.0" encoding="UTF-8"?><!DOCTYPE svg PUBLIC "-//W3C//DTD SVG 1.1//EN" "http://www.w3.org/Graphics/SVG/1.1/DTD/svg11.dtd"><svg xmlns="http://www.w3.org/2000/svg" xmlns:xlink="http://www.w3.org/1999/xlink" version="1.1" id="mdi-selection-drag" width="24" height="24" viewBox="0 0 24 24"><path d="M14,17H17V14H19V17H22V19H19V22H17V19H14V17M12,17V19H9V17H12M7,17V19H3V15H5V17H7M3,13V10H5V13H3M3,8V4H7V6H5V8H3M9,4H12V6H9V4M15,4H19V8H17V6H15V4M19,10V12H17V10H19Z" /></svg>
